static/assets/images/tokens/ebtc.svg

<svg width="256" height="256" viewBox="0 0 256 256" fill="none" xmlns="http://www.w3.org/2000/svg">
<path fill-rule="evenodd" clip-rule="evenodd" d="M128 256C198.934 256 256 198.934 256 128C256 57.0662 198.934 0 128 0C57.0662 0 0 57.0662 0 128C0 198.934 57.0662 256 128 256Z" fill="black"/>
<path fill-rule="evenodd" clip-rule="evenodd" d="M244 128C244 192.065 192.065 244 128 244C63.935 244 12 192.065 12 128C12 63.935 63.935 12 128 12C192.065 12 244 63.935 244 128ZM128 233.209C186.105 233.209 233.209 186.105 233.209 128C233.209 69.8945 186.105 22.7907 128 22.7907C69.8945 22.7907 22.7907 69.8945 22.7907 128C22.7907 186.105 69.8945 233.209 128 233.209Z" fill="white"/>
<path fill-rule="evenodd" clip-rule="evenodd" d="M244 128C244 192.065 192.065 244 128 244C63.935 244 12 192.065 12 128C12 63.935 63.935 12 128 12C192.065 12 244 63.935 244 128ZM128 233.209C186.105 233.209 233.209 186.105 233.209 128C233.209 69.8945 186.105 22.7907 128 22.7907C69.8945 22.7907 22.7907 69.8945 22.7907 128C22.7907 186.105 69.8945 233.209 128 233.209Z" fill="url(#paint0_linear_9890_1819)"/>
<path fill-rule="evenodd" clip-rule="evenodd" d="M179.814 98.7195C178.145 81.8843 163.601 76.2813 145.224 74.6182L145.149 51.4292L130.946 51.4745L131.019 74.2332L119.668 74.2694L119.594 51.5107L105.499 51.5557L105.575 74.9062L76.7656 74.9981L76.8148 90.1975C76.8148 90.1975 87.3049 89.9757 87.1441 90.1645C89.035 89.9504 90.9352 90.4786 92.4443 91.6381C93.9535 92.7975 94.9536 94.4975 95.2341 96.3799L95.4411 160.298C95.4028 160.962 95.2318 161.612 94.938 162.209C94.6442 162.806 94.2337 163.338 93.7308 163.774C93.2373 164.217 92.6592 164.557 92.0313 164.771C91.4033 164.986 90.7384 165.072 90.0765 165.023C90.2653 165.184 79.7472 165.056 79.7472 165.056L77.1122 182.039L105.652 181.948L105.729 205.675L119.932 205.63L119.856 182.252L131.208 182.216L131.283 205.486L145.513 205.441L145.437 181.982C169.426 180.453 186.138 174.481 188.164 152.012C189.8 133.929 181.274 125.886 167.679 122.674C175.924 118.585 181.01 111.037 179.814 98.7195ZM120.156 133.748L120.258 165.061C121.046 165.058 121.973 165.069 123.01 165.081L123.014 165.081C134.642 165.214 160.124 165.505 160.072 149.304C160.018 132.763 135.66 133.38 123.708 133.682H123.707C122.344 133.717 121.142 133.747 120.156 133.748ZM120.045 91.028L120.137 119.49C120.825 119.488 121.639 119.499 122.553 119.513L122.556 119.513C132.3 119.655 153.386 119.962 153.339 105.207C153.29 90.0779 132.863 90.6745 122.93 90.9646C121.824 90.9969 120.848 91.0254 120.045 91.028Z" fill="white"/>
<path fill-rule="evenodd" clip-rule="evenodd" d="M179.814 98.7195C178.145 81.8843 163.601 76.2813 145.224 74.6182L145.149 51.4292L130.946 51.4745L131.019 74.2332L119.668 74.2694L119.594 51.5107L105.499 51.5557L105.575 74.9062L76.7656 74.9981L76.8148 90.1975C76.8148 90.1975 87.3049 89.9757 87.1441 90.1645C89.035 89.9504 90.9352 90.4786 92.4443 91.6381C93.9535 92.7975 94.9536 94.4975 95.2341 96.3799L95.4411 160.298C95.4028 160.962 95.2318 161.612 94.938 162.209C94.6442 162.806 94.2337 163.338 93.7308 163.774C93.2373 164.217 92.6592 164.557 92.0313 164.771C91.4033 164.986 90.7384 165.072 90.0765 165.023C90.2653 165.184 79.7472 165.056 79.7472 165.056L77.1122 182.039L105.652 181.948L105.729 205.675L119.932 205.63L119.856 182.252L131.208 182.216L131.283 205.486L145.513 205.441L145.437 181.982C169.426 180.453 186.138 174.481 188.164 152.012C189.8 133.929 181.274 125.886 167.679 122.674C175.924 118.585 181.01 111.037 179.814 98.7195ZM120.156 133.748L120.258 165.061C121.046 165.058 121.973 165.069 123.01 165.081L123.014 165.081C134.642 165.214 160.124 165.505 160.072 149.304C160.018 132.763 135.66 133.38 123.708 133.682H123.707C122.344 133.717 121.142 133.747 120.156 133.748ZM120.045 91.028L120.137 119.49C120.825 119.488 121.639 119.499 122.553 119.513L122.556 119.513C132.3 119.655 153.386 119.962 153.339 105.207C153.29 90.0779 132.863 90.6745 122.93 90.9646C121.824 90.9969 120.848 91.0254 120.045 91.028Z" fill="url(#paint1_linear_9890_1819)"/>
<defs>
<linearGradient id="paint0_linear_9890_1819" x1="72.6883" y1="183.527" x2="183.677" y2="72.5986" gradientUnits="userSpaceOnUse">
<stop stop-color="#34A3ED"/>
<stop offset="0.999" stop-color="#8165F5"/>
</linearGradient>
<linearGradient id="paint1_linear_9890_1819" x1="88.5667" y1="197.23" x2="167.396" y2="61.5482" gradientUnits="userSpaceOnUse">
<stop stop-color="#34A3ED"/>
<stop offset="0.999" stop-color="#8165F5"/>
</linearGradient>
</defs>
</svg>

<svg xmlns="http://www.w3.org/2000/svg" fill="none" viewBox="0 0 256 256"><path fill="#000" fill-rule="evenodd" d="M128 256c70.934 0 128-57.066 128-128S198.934 0 128 0 0 57.066 0 128s57.066 128 128 128" clip-rule="evenodd"/><path fill="#fff" fill-rule="evenodd" d="M244 128c0 64.065-51.935 116-116 116S12 192.065 12 128 63.935 12 128 12s116 51.935 116 116M128 233.209c58.105 0 105.209-47.104 105.209-105.209S186.105 22.79 128 22.79 22.79 69.895 22.79 128 69.895 233.209 128 233.209" clip-rule="evenodd"/><path fill="url(#paint0_linear_9890_1819)" fill-rule="evenodd" d="M244 128c0 64.065-51.935 116-116 116S12 192.065 12 128 63.935 12 128 12s116 51.935 116 116M128 233.209c58.105 0 105.209-47.104 105.209-105.209S186.105 22.79 128 22.79 22.79 69.895 22.79 128 69.895 233.209 128 233.209" clip-rule="evenodd"/><path fill="#fff" fill-rule="evenodd" d="M179.814 98.72c-1.669-16.836-16.213-22.439-34.59-24.102l-.075-23.189-14.203.045.073 22.76-11.351.035-.074-22.758-14.095.045.076 23.35-28.81.092.05 15.2s10.49-.222 10.33-.033a7.343 7.343 0 0 1 8.09 6.215l.206 63.918a4.98 4.98 0 0 1-1.71 3.476 4.92 4.92 0 0 1-3.654 1.249c.188.161-10.33.033-10.33.033l-2.635 16.983 28.54-.091.077 23.727 14.203-.045-.076-23.378 11.352-.036.075 23.27 14.23-.045-.076-23.459c23.989-1.529 40.701-7.501 42.727-29.97 1.636-18.083-6.89-26.126-20.485-29.338 8.245-4.089 13.331-11.637 12.135-23.955m-59.658 35.028.102 31.313c.788-.003 1.715.008 2.752.02h.004c11.628.133 37.11.424 37.058-15.777-.054-16.541-24.412-15.924-36.364-15.622h-.001a155 155 0 0 1-3.551.066m-.111-42.72.092 28.462c.688-.002 1.502.009 2.416.023h.003c9.744.142 30.83.449 30.783-14.306-.049-15.13-20.476-14.532-30.409-14.242-1.106.032-2.082.06-2.885.063" clip-rule="evenodd"/><path fill="url(#paint1_linear_9890_1819)" fill-rule="evenodd" d="M179.814 98.72c-1.669-16.836-16.213-22.439-34.59-24.102l-.075-23.189-14.203.045.073 22.76-11.351.035-.074-22.758-14.095.045.076 23.35-28.81.092.05 15.2s10.49-.222 10.33-.033a7.343 7.343 0 0 1 8.09 6.215l.206 63.918a4.98 4.98 0 0 1-1.71 3.476 4.92 4.92 0 0 1-3.654 1.249c.188.161-10.33.033-10.33.033l-2.635 16.983 28.54-.091.077 23.727 14.203-.045-.076-23.378 11.352-.036.075 23.27 14.23-.045-.076-23.459c23.989-1.529 40.701-7.501 42.727-29.97 1.636-18.083-6.89-26.126-20.485-29.338 8.245-4.089 13.331-11.637 12.135-23.955m-59.658 35.028.102 31.313c.788-.003 1.715.008 2.752.02h.004c11.628.133 37.11.424 37.058-15.777-.054-16.541-24.412-15.924-36.364-15.622h-.001a155 155 0 0 1-3.551.066m-.111-42.72.092 28.462c.688-.002 1.502.009 2.416.023h.003c9.744.142 30.83.449 30.783-14.306-.049-15.13-20.476-14.532-30.409-14.242-1.106.032-2.082.06-2.885.063" clip-rule="evenodd"/><defs><linearGradient id="paint0_linear_9890_1819" x1="72.688" x2="183.677" y1="183.527" y2="72.599" gradientUnits="userSpaceOnUse"><stop stop-color="#34A3ED"/><stop offset=".999" stop-color="#8165F5"/></linearGradient><linearGradient id="paint1_linear_9890_1819" x1="88.567" x2="167.396" y1="197.23" y2="61.548" gradientUnits="userSpaceOnUse"><stop stop-color="#34A3ED"/><stop offset=".999" stop-color="#8165F5"/></linearGradient></defs></svg>
